X:1
T:She Left a Star
M:3/4
L:1/8
C:Sarah Bauhan
S:Untamed Grasses, Trk 4
R:Waltz
Z:Ed Wosik
K:A
E2|| {B}c3 d c2 | c3 d Bc| A3 B AG| F3 G AF|
d4~d2 | d3 e c2 | B3 c AG| E4 (3EFG|
A2 (3EFE C2 | D3 E FA | AB BA GF|
E2 F2 G2 | A2 A,2 C | {D}E3 D B,C|1) (A,6|A,6) :|2) (A,6|A,3) |:E ~ED|
C2 EC B,A, | A3 E AB | c2 ec BA | F4 (3EFG|
A2 ~E2 C2 | D3 E FA | B2 B,2 C2 | D3 E ~ED|
C2 EC B,A, | A3 E AB | c2 ec BA | {c}d4 ~cB|
A2 A,2 C2 | {D}E3 D B,C | (A,6|A,3) :||
W:Use "A" whistle & play one fourth high, relative to "D" whistle notation
